X:13
T:Trip to Paris. WCl.13
M:2/4
L:1/16
Q:1/4=100
S:William Clarke MS,Lincoln,1770.
R:.reel
O:Lincoln
A:England
N:? bar 4 should be as bar 8, but missingAcFA in MS..I have presumed it
N:for PlayQabc…CGP…
Z:vmp.Barry Callaghan
K:G
G2Bd cAFD|GBdg (d2cB)|ceAc BdGB|\
“_Added,NB”AcFA G2G,2:|!
|:gbeg fadf|egce d2d2|ceAc BdGd|AcFA G2G,2:|
W:NB. AcFA missing in MS

